assets/travel-color/TravelColor10.svg

<svg xmlns="http://www.w3.org/2000/svg" data-name="Layer 1" viewBox="0 0 128 128"><path fill="#02c686" d="M84.788 60.421l-20.75 11.935-20.749-11.935-22.251 10.464v29.019l21.896-13.718 21.104 13.718 21.104-13.718 21.896 13.718V70.885l-22.25-10.464z"/><path fill="#ec3048" d="M64.038 28.1a23.232 23.232 0 00-23.232 23.228c0 12.831 23.232 38.779 23.232 38.779S87.27 64.159 87.27 51.328A23.232 23.232 0 0064.038 28.1zm0 36.686a13.454 13.454 0 1113.454-13.458 13.454 13.454 0 01-13.454 13.455z"/></svg>

<svg xmlns="http://www.w3.org/2000/svg" data-name="Layer 1" viewBox="0 0 128 128"><path fill="#02c686" d="M84.788 60.421 64.038 72.356 43.289 60.421 21.038 70.885 21.038 99.904 42.934 86.186 64.038 99.904 85.142 86.186 107.038 99.904 107.038 70.885 84.788 60.421z"/><path fill="#ec3048" d="M64.038 28.1a23.232 23.232 0 0 0-23.232 23.228c0 12.831 23.232 38.779 23.232 38.779S87.27 64.159 87.27 51.328A23.232 23.232 0 0 0 64.038 28.1zm0 36.686a13.454 13.454 0 1 1 13.454-13.458 13.454 13.454 0 0 1-13.454 13.455z"/></svg>
